svg/exclamation_mark.svg

<svg xmlns="http://www.w3.org/2000/svg" viewBox="0 0 32 32"><path d="M13 4v16h6V4h-6zm2 2h2v12h-2V6zm-2 16v6h6v-6h-6zm2 2h2v2h-2v-2z"/></svg>

<svg xmlns="http://www.w3.org/2000/svg" viewBox="0 0 32 32" enable-background="new 0 0 32 32"><path d="M 13 4 L 13 5 L 13 19 L 13 20 L 14 20 L 18 20 L 19 20 L 19 19 L 19 5 L 19 4 L 18 4 L 14 4 L 13 4 z M 15 6 L 17 6 L 17 18 L 15 18 L 15 6 z M 13 22 L 13 23 L 13 27 L 13 28 L 14 28 L 18 28 L 19 28 L 19 27 L 19 23 L 19 22 L 18 22 L 14 22 L 13 22 z M 15 24 L 17 24 L 17 26 L 15 26 L 15 24 z" color="#000" overflow="visible" enable-background="accumulate"/></svg>
